X: 24585
T: Lynch's
R: reel
M: 4/4
K: Eminor
gf|:eB ~B2 BE ~E2|GFGA (3B^cd gf|eB ~B2 BE ~E2|1 (3B^cd AF E2 gf:|2 (3B^cd AF E3 z||
efga bage|fd ~d2 ad ~d2|efga bgeg|fedf eB ~B2|
efga bage|fd ~d2 ad ~d2|g2fg fedf|edBd efgf||

